X:133 
T:Molly In The Garden 
S:J.O'Neill
B:ONMI.1668 % A-B-A
F:file ID: onmi.hps/133molly
Z:Brennan/Black
R:hornpipe
Q:150
M:C| % source 2/4
L:1/8 % source 1/16
K:G
dc||!segno!BcAB GAFA|EDGE D2GA|B2GB c2Bc|dcBc A2dc|
BcAB GAFA|EDGE D2GA|cedc BA (3GAB|A2G2 G2:|"fine"A2G2 G4||
(3AGF|:E2e2 e2GE|D2d2 d2FD|C2c2 c2AB|cBAB cB (3AGF|
E2e2 e2GE|D2d2 d2ef|gfef gfec|dcde dcBA"_DS":|

